X: 022048
T: Ballyconneely
C: BB
N: 211
L: 1/8
M: 6/8
R: jig
Q: 1/4=175
K: A
A | "A" cBc "Bm" BAB | "A" cBA "D" FEF |\
"A" Ace "D" faf | "A" ecA "E7" B2d |
"A" cBc "Bm" BAB | "A" cBA "F#m" FEF |\
"D" DFA "E" EGB | "A" cAA A2 :|
B| "A" Ace aga | "D" fdf "A" ecA |\
"A" Ace aga | "E" bge e2d |
"A" cea aec | "Bm" BAB "F#m" cAF |\
"D" DFA "E" EGB | "A" cAA A2 :|
